packages/react/src/components/base/Icon/assets/icon-barn.svg

<svg width="24" height="24" viewBox="0 0 24 24" xmlns="http://www.w3.org/2000/svg" fill="currentColor"> <g clip-path="url(#clip0_2087_4361)"> <path d="M9.37498 9.37669C9.37498 9.07832 9.49351 8.79218 9.70449 8.5812C9.91547 8.37022 10.2016 8.25169 10.5 8.25169H13.5C13.7984 8.25169 14.0845 8.37022 14.2955 8.5812C14.5065 8.79218 14.625 9.07832 14.625 9.37669C14.625 9.67506 14.5065 9.96121 14.2955 10.1722C14.0845 10.3832 13.7984 10.5017 13.5 10.5017H10.5C10.2016 10.5017 9.91547 10.3832 9.70449 10.1722C9.49351 9.96121 9.37498 9.67506 9.37498 9.37669ZM23.625 20.2517C23.625 20.5501 23.5065 20.8362 23.2955 21.0472C23.0845 21.2582 22.7984 21.3767 22.5 21.3767H1.49998C1.20161 21.3767 0.915466 21.2582 0.704488 21.0472C0.493509 20.8362 0.374983 20.5501 0.374983 20.2517C0.374983 19.9533 0.493509 19.6672 0.704488 19.4562C0.915466 19.2452 1.20161 19.1267 1.49998 19.1267H1.87498V14.562C1.64914 14.6422 1.4036 14.6481 1.17413 14.579C0.944671 14.5099 0.74328 14.3693 0.599306 14.1777C0.455332 13.9861 0.376299 13.7535 0.373722 13.5139C0.371146 13.2743 0.445161 13.0401 0.584983 12.8454L4.33498 7.59544C4.41033 7.48946 4.5036 7.39745 4.61061 7.32357L10.9444 2.95013L10.9603 2.93982C11.2679 2.73393 11.6298 2.62402 12 2.62402C12.3702 2.62402 12.732 2.73393 13.0397 2.93982L13.0556 2.95013L19.3894 7.32357C19.4964 7.39745 19.5896 7.48946 19.665 7.59544L23.415 12.8454C23.5548 13.0401 23.6288 13.2743 23.6262 13.5139C23.6237 13.7535 23.5446 13.9861 23.4007 14.1777C23.2567 14.3693 23.0553 14.5099 22.8258 14.579C22.5964 14.6481 22.3508 14.6422 22.125 14.562V19.1267H22.5C22.7984 19.1267 23.0845 19.2452 23.2955 19.4562C23.5065 19.6672 23.625 19.9533 23.625 20.2517ZM4.12498 19.1267H5.99998V13.1267C5.99998 12.8283 6.11851 12.5422 6.32949 12.3312C6.54047 12.1202 6.82661 12.0017 7.12498 12.0017H16.875C17.1734 12.0017 17.4595 12.1202 17.6705 12.3312C17.8815 12.5422 18 12.8283 18 13.1267V19.1267H19.875V11.7626L17.9484 9.06638L12 4.95826L6.05155 9.06638L4.12498 11.7626V19.1267ZM15.75 14.2517H10.6781L15.75 17.8208V14.2517ZM8.24998 19.1267H13.6969L8.24998 15.2942V19.1267Z"/> </g> <defs> <clipPath id="clip0_2087_4361"> <rect width="24" height="24"/> </clipPath> </defs> </svg>

<svg viewBox="0 0 24 24" xmlns="http://www.w3.org/2000/svg" aria-hidden="true" fill="currentColor"><g clip-path="url(#a)"><path d="M9.375 9.377A1.125 1.125 0 0 1 10.5 8.252h3a1.125 1.125 0 1 1 0 2.25h-3a1.125 1.125 0 0 1-1.125-1.125m14.25 10.875a1.125 1.125 0 0 1-1.125 1.125h-21a1.125 1.125 0 1 1 0-2.25h.375v-4.565a1.125 1.125 0 0 1-1.29-1.717l3.75-5.25q.114-.16.276-.271l6.333-4.374.016-.01a1.87 1.87 0 0 1 2.08 0l.016.01 6.333 4.374q.161.11.276.271l3.75 5.25a1.125 1.125 0 0 1-1.29 1.717v4.565h.375a1.125 1.125 0 0 1 1.125 1.125m-19.5-1.125H6v-6a1.125 1.125 0 0 1 1.125-1.125h9.75A1.125 1.125 0 0 1 18 13.127v6h1.875v-7.364l-1.927-2.697L12 4.958 6.052 9.066l-1.927 2.697zm11.625-4.875h-5.072l5.072 3.569zm-7.5 4.875h5.447L8.25 15.294z"/></g><defs><clipPath id="a"><path d="M0 0h24v24H0z"/></clipPath></defs></svg>
